src/pages/Main/ui/TimeLine/images/registration.svg

<svg fill="none" height="27" viewBox="0 0 25 27" width="25" xmlns="http://www.w3.org/2000/svg" xmlns:xlink="http://www.w3.org/1999/xlink"><clipPath id="a"><path d="m0 0h25v27h-25z"/></clipPath><g clip-path="url(#a)" fill="#fff"><path d="m19.3472 27h-19.024675c-.178464 0-.322525-.1478-.322525-.3308v-23.88435c0-.18301.144061-.33075.322525-.33075s.322525.14774.322525.33075v23.55255h18.70215c.1785 0 .3225.1477.3225.3307s-.144.3308-.3225.3308z"/><path d="m21.7403 24.5448h-19.02471c-.17846 0-.32252-.1478-.32252-.3308v-23.883253c0-.183013.14406-.330747.32252-.330747h19.02581c.1784 0 .3225.147734.3225.330747v3.278813c0 .18301-.1441.33074-.3225.33074-.1785 0-.3226-.14773-.3226-.33074v-2.948066h-18.38068v23.221806h18.38068v-8.0681c0-.183.1441-.3307.3226-.3307.1784 0 .3225.1477.3225.3307v8.3988c0 .183-.1441.3308-.3225.3308z"/><path d="m15.6036 4.00647h-6.75153c-.17847 0-.32253-.14774-.32253-.33075 0-.18302.14406-.33075.32253-.33075h6.75153c.1785 0 .3225.14773.3225.33075 0 .18301-.144.33075-.3225.33075z"/><path d="m18.4527 6.99426h-13.03105c-.17847 0-.32253-.14774-.32253-.33075s.14406-.33075.32253-.33075h13.03105c.1785 0 .3226.14774.3226.33075s-.1441.33075-.3226.33075z"/><path d="m17.4228 9.98083h-12.00115c-.17847 0-.32253-.14773-.32253-.33075 0-.18301.14406-.33074.32253-.33074h12.00115c.1785 0 .3225.14773.3225.33074 0 .18302-.144.33075-.3225.33075z"/><path d="m13.9643 12.9234h-8.63296c-.12794 0-.23222-.1279-.23222-.2867 0-.1587.10428-.2866.23222-.2866h8.63296c.1279 0 .2322.1279.2322.2866 0 .1588-.1043.2867-.2322.2867z"/><path d="m15.6468 21.0686h-8.21148c-.17847 0-.32253-.1477-.32253-.3307 0-.1831.14406-.3308.32253-.3308h8.21148c.1785 0 .3225.1477.3225.3308 0 .183-.144.3307-.3225.3307z"/><path d="m15.6381 18.9761c-.3161 0-.6214-.1047-.8762-.3043l-.2451-.1907c-.3086-.2403-.5075-.5909-.5591-.9867-.0526-.3958.0484-.7883.2828-1.1047l7.6793-10.34911c.4859-.65488 1.4008-.78167 2.0394-.28444l.2452.19073c.6386.49832.7622 1.43654.2773 2.09142l-7.6804 10.3491c-.2343.3164-.5762.5204-.9622.5733-.0666.0099-.1333.0143-.1999.0143zm7.4396-12.86275c-.2441 0-.486.11246-.6462.32744l-7.6793 10.34911c-.2709.3649-.201.8864.1538 1.1642l.2451.1907c.172.1334.3849.1908.5988.161.215-.0298.4053-.1433.5354-.3186l7.6793-10.3491c.2699-.36493.2011-.8864-.1537-1.16423l-.2451-.19073c-.1463-.11356-.3183-.16979-.4892-.16979z"/><path d="m21.8522 13.3435c-.0677 0-.1365-.0221-.1946-.0673-.1419-.1102-.1688-.3186-.0613-.463l2.8253-3.80692c.1075-.14553.3097-.17419.4516-.06284.1419.11025.1688.31862.0613.46304l-2.8254 3.80692c-.0634.086-.1591.1301-.2569.1301z"/><path d="m14.119 19.6078c-.0677 0-.1365-.022-.1946-.0672-.1419-.1103-.1687-.3175-.0612-.4631l.7149-.9636c.1075-.1455.3096-.1741.4515-.0628.1419.1103.1688.3175.0613.463l-.7149.9636c-.0635.086-.1591.1301-.257.1301z"/><path d="m17.1142 17.7491c-.0677 0-.1365-.0221-.1946-.0673l-2.0469-1.5975c-.1419-.1102-.1688-.3175-.0613-.463.1075-.1456.3096-.1742.4515-.0629l2.047 1.5975c.1419.1103.1688.3176.0613.4631-.0634.086-.1591.1301-.257.1301z"/></g></svg>

<svg width="25" height="27" viewBox="0 0 25 27" fill="none" xmlns="http://www.w3.org/2000/svg">
    <g clip-path="url(#clip0_7_264)">
        <path d="M19.3472 27H0.322525C0.144061 27 0 26.8522 0 26.6692V2.78485C0 2.60184 0.144061 2.4541 0.322525 2.4541C0.500989 2.4541 0.64505 2.60184 0.64505 2.78485V26.3374H19.3472C19.5257 26.3374 19.6697 26.4851 19.6697 26.6681C19.6697 26.8511 19.5257 26.9989 19.3472 26.9989V27Z" fill="white"/>
        <path d="M21.7403 24.5448H2.71559C2.53713 24.5448 2.39307 24.397 2.39307 24.214V0.330747C2.39307 0.147734 2.53713 0 2.71559 0H21.7414C21.9198 0 22.0639 0.147734 22.0639 0.330747V3.60956C22.0639 3.79257 21.9198 3.9403 21.7414 3.9403C21.5629 3.9403 21.4188 3.79257 21.4188 3.60956V0.661494H3.03812V23.8833H21.4188V15.8152C21.4188 15.6322 21.5629 15.4845 21.7414 15.4845C21.9198 15.4845 22.0639 15.6322 22.0639 15.8152V24.214C22.0639 24.397 21.9198 24.5448 21.7414 24.5448H21.7403Z" fill="white"/>
        <path d="M15.6036 4.00647H8.85207C8.6736 4.00647 8.52954 3.85873 8.52954 3.67572C8.52954 3.4927 8.6736 3.34497 8.85207 3.34497H15.6036C15.7821 3.34497 15.9261 3.4927 15.9261 3.67572C15.9261 3.85873 15.7821 4.00647 15.6036 4.00647Z" fill="white"/>
        <path d="M18.4527 6.99426H5.42165C5.24318 6.99426 5.09912 6.84652 5.09912 6.66351C5.09912 6.4805 5.24318 6.33276 5.42165 6.33276H18.4527C18.6312 6.33276 18.7753 6.4805 18.7753 6.66351C18.7753 6.84652 18.6312 6.99426 18.4527 6.99426Z" fill="white"/>
        <path d="M17.4228 9.98083H5.42165C5.24318 9.98083 5.09912 9.8331 5.09912 9.65008C5.09912 9.46707 5.24318 9.31934 5.42165 9.31934H17.4228C17.6013 9.31934 17.7453 9.46707 17.7453 9.65008C17.7453 9.8331 17.6013 9.98083 17.4228 9.98083Z" fill="white"/>
        <path d="M13.9643 12.9234H5.33134C5.2034 12.9234 5.09912 12.7955 5.09912 12.6367C5.09912 12.478 5.2034 12.3501 5.33134 12.3501H13.9643C14.0922 12.3501 14.1965 12.478 14.1965 12.6367C14.1965 12.7955 14.0922 12.9234 13.9643 12.9234Z" fill="white"/>
        <path d="M15.6468 21.0686H7.43532C7.25685 21.0686 7.11279 20.9209 7.11279 20.7379C7.11279 20.5548 7.25685 20.4071 7.43532 20.4071H15.6468C15.8253 20.4071 15.9693 20.5548 15.9693 20.7379C15.9693 20.9209 15.8253 21.0686 15.6468 21.0686Z" fill="white"/>
        <path d="M15.6381 18.9761C15.322 18.9761 15.0167 18.8714 14.7619 18.6718L14.5168 18.4811C14.2082 18.2408 14.0093 17.8902 13.9577 17.4944C13.9051 17.0986 14.0061 16.7061 14.2405 16.3897L21.9198 6.04059C22.4057 5.38571 23.3206 5.25892 23.9592 5.75615L24.2044 5.94688C24.843 6.4452 24.9666 7.38342 24.4817 8.0383L16.8013 18.3874C16.567 18.7038 16.2251 18.9078 15.8391 18.9607C15.7725 18.9706 15.7058 18.975 15.6392 18.975L15.6381 18.9761ZM23.0777 6.11335C22.8336 6.11335 22.5917 6.22581 22.4315 6.44079L14.7522 16.7899C14.4813 17.1548 14.5512 17.6763 14.906 17.9541L15.1511 18.1448C15.3231 18.2782 15.536 18.3356 15.7499 18.3058C15.9649 18.276 16.1552 18.1625 16.2853 17.9872L23.9646 7.6381C24.2345 7.27317 24.1657 6.7517 23.8109 6.47387L23.5658 6.28314C23.4195 6.16958 23.2475 6.11335 23.0766 6.11335H23.0777Z" fill="white"/>
        <path d="M21.8522 13.3435C21.7845 13.3435 21.7157 13.3214 21.6576 13.2762C21.5157 13.166 21.4888 12.9576 21.5963 12.8132L24.4216 9.00628C24.5291 8.86075 24.7313 8.83209 24.8732 8.94344C25.0151 9.05369 25.042 9.26206 24.9345 9.40648L22.1091 13.2134C22.0457 13.2994 21.95 13.3435 21.8522 13.3435Z" fill="white"/>
        <path d="M14.119 19.6078C14.0513 19.6078 13.9825 19.5858 13.9244 19.5406C13.7825 19.4303 13.7557 19.2231 13.8632 19.0775L14.5781 18.1139C14.6856 17.9684 14.8877 17.9398 15.0296 18.0511C15.1715 18.1614 15.1984 18.3686 15.0909 18.5141L14.376 19.4777C14.3125 19.5637 14.2169 19.6078 14.119 19.6078Z" fill="white"/>
        <path d="M17.1142 17.7491C17.0465 17.7491 16.9777 17.727 16.9196 17.6818L14.8727 16.0843C14.7308 15.9741 14.7039 15.7668 14.8114 15.6213C14.9189 15.4757 15.121 15.4471 15.2629 15.5584L17.3099 17.1559C17.4518 17.2662 17.4787 17.4735 17.3712 17.619C17.3078 17.705 17.2121 17.7491 17.1142 17.7491Z" fill="white"/>
    </g>
    <defs>
        <clipPath id="clip0_7_264">
            <rect width="25" height="27" fill="white"/>
        </clipPath>
    </defs>
</svg>
